src/assets/menu_groups.svg

<svg xmlns="http://www.w3.org/2000/svg" width="24" height="24" viewBox="0 0 24 24">
  <path fill="#fff" d="M14.8286949,12.7243502 C15.6118006,12.5633121 16.3765057,12.5 17,12.5 C19.2941176,12.5 23.5,13.3571429 23.5,16.7857143 C23.5,18.2857143 23.1176471,18.5 22.3529412,18.5 L16.2630074,18.5 C16.4208499,18.0110903 16.5,17.4377323 16.5,16.7857143 C16.5,15.0631583 15.8688201,13.7193375 14.8286949,12.7243502 Z M1.5,16.7857143 C1.5,13.3571429 5.70588235,12.5 8,12.5 C10.2941176,12.5 14.5,13.3571429 14.5,16.7857143 C14.5,18.2857143 14.1176471,18.5 13.3529412,18.5 L2.64705882,18.5 C1.88235294,18.5 1.5,18.2857143 1.5,16.7857143 Z M11,8 C11,9.6575 9.6575,11 8,11 C6.3425,11 5,9.6575 5,8 C5,6.3425 6.3425,5 8,5 C9.6575,5 11,6.3425 11,8 Z M20,8 C20,9.6575 18.6575,11 17,11 C15.3425,11 14,9.6575 14,8 C14,6.3425 15.3425,5 17,5 C18.6575,5 20,6.3425 20,8 Z"/>
</svg>

<svg xmlns="http://www.w3.org/2000/svg" width="24" height="24"><path fill="#fff" d="M14.83 12.72c.78-.16 1.55-.22 2.17-.22 2.3 0 6.5.86 6.5 4.29 0 1.5-.38 1.71-1.15 1.71h-6.09a5.6 5.6 0 0 0 .24-1.71c0-1.73-.63-3.07-1.67-4.07zM1.5 16.8c0-3.43 4.2-4.29 6.5-4.29s6.5.86 6.5 4.29c0 1.5-.38 1.71-1.15 1.71H2.65c-.77 0-1.15-.21-1.15-1.71zM11 8a3 3 0 1 1-6 0 3 3 0 0 1 6 0zm9 0a3 3 0 1 1-6 0 3 3 0 0 1 6 0z"/></svg>
